X:1
T:BWV 0785
T:Invention 14
T:Johann Sebastian Bach
%%score { 1 | 2 }
L:1/8
Q:1/4=69
M:4/4
K:Bb
V:1 treble nm="Harp"
V:2 bass 
V:1
 z/ B/4c/4d/4c/4B/ f/d/b/f/ d/f/4e/4d/4e/4f/ B/d/F/_A/ | %1
 G/E/4F/4G/4F/4E/ B/G/e/B/ G/B/4_A/4G/4A/4B/ E/G/C/E/ | %2
 A,/C/4D/4E/4D/4C/ A/F/c/A/ e/F/4G/4A/4G/4F/ c/A/f/c/ | %3
 d z z/ g/4f/4e/4f/4g/ c z z/ f/4e/4d/4e/4f/ | B z z/ e/4d/4c/4d/4e/ A/c/4B/4A/4B/4c/ F z | %5
 fFAc f2 z2 | z FBd f2 z2 | z GBc =e2 z2 | z/ F/4G/4A/4G/4F/ c/A/f/c/ a/e/4d/4c/4d/4e/ A/c/_G/A/ | %9
 BdBG _AfAF | G/C/4D/4E/4D/4C/ G/E/c/G/ d/_A/4G/4F/4G/4A/ D/F/=B,/G/ | %11
 E z z/ C/4D/4E/4D/4C/ c>B A/F/4G/4A/4G/4F/ | f>e d/B/4c/4d/4c/4B/ b>_a g/b/4a/4g/4a/4b/ | %13
 e/g/4f/4e/4f/4g/ c/e/4d/4c/4d/4e/ A/c/4d/4e/4d/4c/ f/_A/4G/4F/4G/4A/ | %14
 G/B/4c/4d/4c/4B/ e/G/4F/4E/4F/4G/ F/A/4B/4c/4B/4A/ d/F/4E/4D/4E/4F/ | %15
 E/G/4A/4B/4A/4G/ c/E/4D/4C/4D/4E/ D2 z/ B/4c/4d/4c/4B/ | %16
 f/d/b/f/ d/f/4e/4d/4e/4f/ B/e/B/e/ G/E/4F/4G/4F/4E/ | %17
 B/G/e/B/ G/B/4_A/4G/4A/4B/ Ee- e/e/4d/4c/4d/4e/ | %18
 Fe- e/c/4d/4e/4d/4c/ f/d/4c/4B/4c/4d/ F/B/c/A/[Q:1/4=68][Q:1/4=67][Q:1/4=66][Q:1/4=65][Q:1/4=64][Q:1/4=63][Q:1/4=62][Q:1/4=61][Q:1/4=60][Q:1/4=59][Q:1/4=58][Q:1/4=57][Q:1/4=56][Q:1/4=55][Q:1/4=54][Q:1/4=53][Q:1/4=52][Q:1/4=51][Q:1/4=50][Q:1/4=49][Q:1/4=48][Q:1/4=47] | %19
[Q:1/4=69] !fermata!B8 |] %20
V:2
 B,B,,D,F, B,2 z2 | z B,,E,G, B,2 z2 | z B,,C,E, A,2 z2 | %3
 z/ B,/4C/4D/4C/4B,/ E z z/ A,/4B,/4C/4B,/4A,/ D z | %4
 z/ G,/4A,/4B,/4A,/4G,/ C/C,/4D,/4E,/4D,/4C,/ F,F,, z/ C/A,/F,/ | %5
 z/ F,/4G,/4A,/4G,/4F,/ C/A,/F/C/ A,/C/4B,/4A,/4B,/4C/ F,/A,/C,/E,/ | %6
 D,/B,,/4C,/4D,/4C,/4B,,/ F,/D,/B,/F,/ D,/F,/4E,/4D,/4E,/4F,/ B,,/D,/G,,/B,,/ | %7
 =E,,/G,,/4A,,/4B,,/4A,,/4G,,/ =E,/C,/G,/E,/ B,/C,/4D,/4E,/4D,/4C,/ G,/E,/C/G,/ | %8
 A,CA,F, ^F,A,F,D, | %9
 G,/G,,/4A,,/4B,,/4A,,/4G,,/ D,/B,,/G,/D,/ B,/_A,/4G,/4F,/4G,/4A,/ D,/F,/B,,/D,/ | %10
 E,G,E,C, =B,,D,B,,G,, | C,/C,,/4D,,/4E,,/4D,,/4C,,/ C,>B,, A,,/F,,/4G,,/4A,,/4G,,/4F,,/ F,>E, | %12
 D,/B,,/4C,/4D,/4C,/4B,,/ B,>_A, G,/E,/4F,/4G,/4F,/4E,/ E>D | %13
 C/E/4D/4C/4D/4E/ A,/C/4B,/4A,/4B,/4C/ F,/A,/4B,/4C/4B,/4A,/ D/F,/4E,/4D,/4E,/4F,/ | %14
 E,/G,/4A,/4B,/4A,/4G,/ C/E,/4D,/4C,/4D,/4E,/ D,/F,/4G,/4A,/4G,/4F,/ B,/D,/4C,/4B,,/4C,/4D,/ | %15
 C,/E,/4F,/4G,/4F,/4E,/ A,/C,/4B,,/4A,,/4B,,/4C,/ B,,/B,/4C/4D/4C/4B,/ F/D/B/F/ | %16
 D/F/4E/4D/4E/4F/ B,/D/F,/_A,/ G,/E,/4F,/4G,/4F,/4E,/ B,/G,/E/B,/ | %17
 G,/B,/4_A,/4G,/4A,/4B,/ E,/G,/B,,/D,/ C,/F,,/4G,,/4A,,/4G,,/4F,,/ C,/A,,/E,/C,/ | %18
 A,,/C,/4B,,/4A,,/4B,,/4C,/ F,,/A,,/C,,/E,,/ D,,/B,,/4C,/4D,/4C,/4B,,/ F,F,, | !fermata!B,,8 |] %20

